X:679
M:C|
L:1/8
K:G Minor
^f|gdgb =fcfa|gdgb gagd|fgdf AFAc|dBcA BGG^f|gdgb =fcfa|
gdgb gafg|dfcf AFAc|dBcA G2G||

